dist/img/svg/sms-white.svg

<svg width="23" height="18" viewBox="0 0 23 18" fill="none" xmlns="http://www.w3.org/2000/svg">
<path d="M22.6293 2.25C22.6293 1.0125 21.6393 0 20.4293 0H2.82933C1.61933 0 0.629333 1.0125 0.629333 2.25V15.75C0.629333 16.9875 1.61933 18 2.82933 18H20.4293C21.6393 18 22.6293 16.9875 22.6293 15.75V2.25ZM20.4293 2.25L11.6293 7.875L2.82933 2.25H20.4293ZM20.4293 15.75H2.82933V4.5L11.6293 10.125L20.4293 4.5V15.75Z" fill="white"/>
</svg>

<svg width="23" height="18" viewBox="0 0 23 18" fill="none" xmlns="http://www.w3.org/2000/svg"><path d="M22.63 2.25c0-1.238-.99-2.25-2.2-2.25H2.83C1.62 0 .63 1.012.63 2.25v13.5c0 1.238.99 2.25 2.2 2.25h17.6c1.21 0 2.2-1.012 2.2-2.25V2.25zm-2.2 0l-8.8 5.625-8.8-5.625h17.6zm0 13.5H2.83V4.5l8.8 5.625 8.8-5.625v11.25z" fill="#fff"/></svg>
